**kern
*part1
*staff1
*
*
*clefG2
*k[b-]
*M3/4
=1
8.cL
16cJk
4d
4c
=2
4f
2e
=3
8.cL
16cJk
4d
4c
=4
4g
2f
=5
8.cL
16cJk
4cc
4a
=6
4f
4e
4d
=7
8.b-L
16b-Jk
4a
4f
=8
4g
[2f
=9
4f]
4r
4r
==
*-
!!!system-decoration: {(s1,s2)}
